korla-light/actions/symbolic/find-location-symbolic.svg

<svg style="clip-rule:evenodd;fill-rule:evenodd;stroke-linejoin:round;stroke-miterlimit:2" version="1.1" viewBox="0 0 16 16" xmlns="http://www.w3.org/2000/svg">
 <path d="m7 1v2.09c-1.95 0.4-3.51 1.96-3.91 3.91h-2.09v2h2.09c0.4 1.95 1.96 3.51 3.91 3.91v2.09h2v-2.09c1.95-0.4 3.51-1.96 3.91-3.91h2.09v-2h-2.09c-0.4-1.95-1.96-3.51-3.91-3.91v-2.09h-2zm1 2.985c2.208 0 4.015 1.807 4.015 4.015s-1.807 4.015-4.015 4.015-4.015-1.807-4.015-4.015 1.807-4.015 4.015-4.015z" style="fill-rule:nonzero;fill:rgb(68,68,68)"/>
</svg>

<svg xmlns="http://www.w3.org/2000/svg" width="16" height="16" version="1.1">
 <path style="fill:#444444" d="M 7,1 V 3.09 C 5.05,3.49 3.49,5.05 3.09,7 H 1 V 9 H 3.09 C 3.49,10.95 5.05,12.51 7,12.91 V 15 H 9 V 12.91 C 10.95,12.51 12.51,10.95 12.91,9 H 15 V 7 H 12.91 C 12.51,5.05 10.95,3.49 9,3.09 V 1 Z M 8,6 C 9.1,6 10,6.9 10,8 10,9.1 9.1,10 8,10 6.9,10 6,9.1 6,8 6,6.9 6.9,6 8,6 Z"/>
</svg>
